X: 1823
T: Ardgroom, The
R: polka
M: 2/4
K: Gmajor
|B/A/|:GD B>A|GB d>^c|de dG|BAAB/A/|
GD B>A|GB d>^c|de dB|AG GB/A/:|
|:Gg gf|ed d>B|de dB|GA B>A|
Gg gf|ed d>B|de dB|AG GB/A/:|

